components/Icon/icons/html.svg

<svg width="50" height="50" viewBox="0 0 50 50" fill="none" xmlns="http://www.w3.org/2000/svg">
<path d="M9.22187 42.5016L5.71094 3.125H44.2891L40.7734 42.4953L24.9766 46.875L9.22187 42.5016Z" fill="#E44F26"/>
<path d="M25 43.5282L37.7656 39.9891L40.7687 6.34534H25V43.5282Z" fill="#F1662A"/>
<path d="M25 20.9485H18.6094L18.1688 16.0031H25V11.1735H12.8906L13.0063 12.4703L14.1922 25.7781H25V20.9485V20.9485Z" fill="#EBEBEB"/>
<path d="M25 33.4906L24.9781 33.4968L19.6 32.0453L19.2563 28.1937H14.4078L15.0844 35.775L24.9781 38.5218L25 38.5156V33.4906Z" fill="#EBEBEB"/>
<path d="M24.9828 20.9484V25.7781H30.9297L30.3703 32.0422L24.9828 33.4953V38.5203L34.8843 35.775L34.9562 34.9594L36.0906 22.2453L36.2093 20.9484H24.9828V20.9484Z" fill="white"/>
<path d="M24.9828 11.1735V16.0031H36.6484L36.7453 14.9188L36.9656 12.4703L37.0812 11.1735H24.9828V11.1735Z" fill="white"/>
</svg>

<svg xmlns="http://www.w3.org/2000/svg"
viewBox="0 0 50 50" width="100%" height="100%" fill="none"  xmlns:v="https://vecta.io/nano"><path d="M9.222 42.502L5.711 3.125h38.578l-3.516 39.37-15.797 4.38-15.755-4.373z" fill="#e44f26"/><path d="M25 43.528l12.766-3.539 3.003-33.644H25v37.183z" fill="#f1662a"/><path d="M25 20.949h-6.391l-.441-4.945H25v-4.83H12.891l1.302 14.605H25v-4.83zm0 12.542l-.022.006-5.378-1.452-.344-3.852h-4.848l.677 7.581 9.894 2.747.022-.006V33.49z" fill="#ebebeb"/><path d="M24.983 20.948v4.83h5.947l-.559 6.264-5.387 1.453v5.025l9.902-2.745.072-.816 1.253-14.011H24.983zm0-9.774v4.83h11.666l.097-1.084.336-3.745H24.983z" fill="#fff"/></svg>
